X:0349
T:Why shou'd I not like my Love.
M:9/8
L:1/8
Q:3/8=120
I: || ::
Z:Jack Campin * www.campin.me.uk * 2009
K:A Minor
E|ABA c2A cde|G2G Gge dBG|ABA c2A cde|ede gdB A2E|
  ABA c2A cde|GAG Gge dBG|ABA c2A cde|ede gdB G2||
g|ede ede g2g|dBd dBd f2d|eag edB deg|ede gdB A2:|
<end>
<start>
